packages/ffe-icons/icons/open/300/md/arrows_more_down.svg

<svg xmlns="http://www.w3.org/2000/svg" height="24" viewBox="0 -960 960 960" width="24"><path d="M256.155-140.001q-15.365 0-25.759-10.395-10.395-10.394-10.395-25.759v-353.846q0-12.749 8.629-21.374Q237.259-560 250.014-560q12.756 0 21.371 8.625Q280-542.75 280-530.001V-200h330.001q12.749 0 21.374 8.629Q640-182.743 640-169.987q0 12.755-8.625 21.37-8.625 8.616-21.374 8.616H256.155ZM436.154-320q-15.366 0-25.76-10.394Q400-340.788 400-356.154v-353.845q0-12.75 8.629-21.375 8.628-8.625 21.384-8.625 12.755 0 21.37 8.625 8.616 8.625 8.616 21.375v330h330q12.75 0 21.375 8.629t8.625 21.384q0 12.756-8.625 21.371Q802.749-320 789.999-320H436.154Z"/></svg>

<svg xmlns="http://www.w3.org/2000/svg" height="24" viewBox="0 -960 960 960" width="24"><path d="M256.16-140q-15.37 0-25.76-10.4-10.4-10.39-10.4-25.76V-530q0-12.75 8.63-21.38 8.63-8.62 21.38-8.62 12.76 0 21.37 8.62Q280-542.75 280-530v330h330q12.75 0 21.38 8.63 8.62 8.63 8.62 21.38 0 12.76-8.62 21.37Q622.75-140 610-140H256.16Zm179.99-180q-15.36 0-25.76-10.39Q400-340.79 400-356.15V-710q0-12.75 8.63-21.37 8.63-8.63 21.38-8.63 12.76 0 21.37 8.63Q460-722.75 460-710v330h330q12.75 0 21.37 8.63 8.63 8.63 8.63 21.38 0 12.76-8.63 21.37Q802.75-320 790-320H436.15Z"/></svg>
